X:910
T:First Pint, The
R:jig
C:Colin Farrell
D:Kevin Crawford: In Good Company
Z:Devin McCabe
M:6/8
L:1/8
K:D
dAB d2A|Bdf efd|~B3 ede|faa g2f|
!dAB d2A|Bdf efd|~B3 edB|AFE D (3FGA:|
!:~B3 BAF|ABc d2B|A c/2B/2A AFE|EFA DFA|
!~B3 BAF|ABc d2c|ded dBA|1abg efd:|2abg efe||
